data/kismet3.svg

<?xml version="1.0" encoding="UTF-8" standalone="no"?>
<!DOCTYPE svg PUBLIC "-//W3C//DTD SVG 20010904//EN"
"http://www.w3.org/TR/2001/REC-SVG-20010904/DTD/svg10.dtd">
<!--
	(c) 2004 Ryan Stutsman
	
    This work is free; you can redistribute it and/or modify
    it under the terms of the GNU General Public License as published by
    the Free Software Foundation; either version 2 of the License, or
    (at your option) any later version.

    This work is distributed in the hope that it will be useful,
    but WITHOUT ANY WARRANTY; without even the implied warranty of
    MERCHANTABILITY or FITNESS FOR A PARTICULAR PURPOSE.  See the
    GNU General Public License for more details.

    You should have received a copy of the GNU General Public License
    along with this program; if not, write to the Free Software
    Foundation, Inc., 59 Temple Place, Suite 330, Boston, MA  02111-1307  USA
-->
<svg
   xmlns:dc="http://purl.org/dc/elements/1.1/"
   xmlns:cc="http://web.resource.org/cc/"
   xmlns:rdf="http://www.w3.org/1999/02/22-rdf-syntax-ns#"
   xmlns:svg="http://www.w3.org/2000/svg"
   xmlns="http://www.w3.org/2000/svg"
   xmlns:xlink="http://www.w3.org/1999/xlink"
   xmlns:sodipodi="http://sodipodi.sourceforge.net/DTD/sodipodi-0.dtd"
   xmlns:inkscape="http://www.inkscape.org/namespaces/inkscape"
   version="1.0"
   x="0"
   y="0"
   width="80.0000000"
   height="80.0000000"
   id="svg559"
   sodipodi:version="0.32"
   inkscape:version="0.44"
   sodipodi:docname="newBlank.svg"
   sodipodi:docbase="/home/geoff/gnome/gnome-games/gtali/pix">
  <metadata
     id="metadata7964">
    <rdf:RDF>
      <cc:Work
         rdf:about="">
        <dc:format>image/svg+xml</dc:format>
        <dc:type
           rdf:resource="http://purl.org/dc/dcmitype/StillImage" />
      </cc:Work>
    </rdf:RDF>
  </metadata>
  <sodipodi:namedview
     inkscape:window-height="590"
     inkscape:window-width="946"
     inkscape:pageshadow="2"
     inkscape:pageopacity="0.0"
     guidetolerance="10.0"
     gridtolerance="10.0"
     objecttolerance="10.0"
     borderopacity="1.0"
     bordercolor="#666666"
     pagecolor="#ffffff"
     id="base"
     inkscape:zoom="4.725"
     inkscape:cx="40"
     inkscape:cy="40"
     inkscape:window-x="32"
     inkscape:window-y="71"
     inkscape:current-layer="svg559" />
  <defs
     id="defs561">
    <linearGradient
       id="linearGradient8310">
      <stop
         id="stop8312"
         offset="0"
         style="stop-color:#ffffff;stop-opacity:1.0000;" />
      <stop
         id="stop8314"
         offset="1"
         style="stop-color:#656566;stop-opacity:1.0000;" />
    </linearGradient>
    <linearGradient
       id="linearGradient579">
      <stop
         style="stop-color:#ffffff;stop-opacity:1.0000;"
         offset="0"
         id="stop580" />
      <stop
         style="stop-color:#656566;stop-opacity:1.0000;"
         offset="1"
         id="stop581" />
    </linearGradient>
    <linearGradient
       id="linearGradient564">
      <stop
         style="stop-color:#f07f7d;stop-opacity:1.0000;"
         offset="0"
         id="stop565" />
      <stop
         style="stop-color:#620000;stop-opacity:1.0000;"
         offset="1"
         id="stop566" />
    </linearGradient>
    <linearGradient
       x1="0.302321"
       y1="0.617179"
       x2="0.887597"
       y2="0.601562"
       id="linearGradient567"
       xlink:href="#linearGradient579" />
    <linearGradient
       id="linearGradient3693">
      <stop
         style="stop-color:#bdffb3;stop-opacity:0.49803922;"
         offset="0"
         id="stop3695" />
      <stop
         style="stop-color:#00e900;stop-opacity:0.91764706;"
         offset="1"
         id="stop3697" />
    </linearGradient>
    <radialGradient
       cx="0.276923"
       cy="0.507812"
       r="0.703749"
       fx="0.276923"
       fy="0.507812"
       id="radialGradient568"
       xlink:href="#linearGradient579" />
    <radialGradient
       cx="0.228950"
       cy="0.203126"
       r="1.809091"
       fx="0.228950"
       fy="0.203126"
       id="radialGradient570"
       xlink:href="#linearGradient579" />
    <radialGradient
       cx="367.49161"
       cy="182.0753"
       r="60.13496"
       fx="367.49161"
       fy="182.0753"
       id="radialGradient572"
       xlink:href="#linearGradient579"
       gradientTransform="matrix(1,0,0,0.472222,0,96.09531)"
       gradientUnits="userSpaceOnUse" />
    <radialGradient
       cx="0.231891"
       cy="-2.546936"
       r="6.407288"
       fx="0.231891"
       fy="-2.546936"
       id="radialGradient574"
       xlink:href="#linearGradient8310" />
    <radialGradient
       cx="0.678370"
       cy="0.328118"
       r="0.743097"
       fx="0.678370"
       fy="0.328118"
       id="radialGradient582"
       xlink:href="#linearGradient579" />
    <radialGradient
       inkscape:collect="always"
       xlink:href="#linearGradient3693"
       id="radialGradient3699"
       cx="379.77573"
       cy="105.99433"
       fx="379.77573"
       fy="105.99433"
       r="16.704161"
       gradientTransform="matrix(0.891044,-5.093904e-3,4.719789e-3,0.939406,40.75568,8.226063)"
       gradientUnits="userSpaceOnUse" />
  </defs>
  <g
     id="g588">
    <path
       d="M 360.4717 51.12511 C 344.2768 52.36496 333.8589 55.91560 318.8194 68.70979 C 303.8897 85.65758 287.6176 103.5574 281.8405 130.4836 C 272.2701 189.4130 312.7988 212.1533 328.4660 220.5191 C 343.4720 225.8783 357.9002 233.5485 373.4838 236.5968 C 386.8819 238.6815 400.2801 237.3000 413.6782 234.1853 C 447.8076 217.5444 459.9840 176.0620 467.5387 146.1336 C 471.2729 127.5532 470.9877 105.7130 461.9114 94.30870 C 450.8651 79.21104 428.8422 63.53577 401.0422 55.94849 C 385.4349 49.14116 372.0604 49.39194 360.4717 51.12511 z "
       style="font-size:12.000;fill:url(#radialGradient568);stroke:black;stroke-width:2.500000;"
       id="path572"
       transform="matrix(0.386209,0,0,0.386209,-105.0170,-14.62676)" />
    <ellipse
       cx="138.6445"
       cy="103.5658"
       rx="65.14622"
       ry="46.77166"
       transform="matrix(0.435723,0,0,0.446636,-21.93232,-18.82671)"
       style="font-size:12.000;fill:url(#radialGradient570);fill-rule:evenodd;"
       id="path569" />
    <ellipse
       cx="367.4916"
       cy="182.0753"
       rx="60.13496"
       ry="28.39706"
       transform="matrix(0.379942,0.156575,-0.151138,0.393608,-81.12441,-67.58463)"
       style="font-size:12.000;fill:url(#radialGradient572);fill-rule:evenodd;"
       id="path571" />
    <ellipse
       cx="481.0799"
       cy="188.7570"
       rx="60.13498"
       ry="21.71539"
       transform="matrix(0.128262,-0.308075,0.208654,0.189377,-34.50172,164.2841)"
       style="font-size:12.000;fill:url(#radialGradient574);fill-rule:evenodd;"
       id="path573" />
    <ellipse
       cx="374.17319"
       cy="110.2474"
       rx="16.704161"
       ry="13.3633"
       transform="matrix(0.463455,0,0,0.434484,-117.1827,-26.24901)"
       style="font-size:12.000;fill:url(#radialGradient3699);fill-rule:evenodd;fill-opacity:1.0;opacity:1"
       id="path575"
       sodipodi:cx="374.17319"
       sodipodi:cy="110.2474"
       sodipodi:rx="16.704161"
       sodipodi:ry="13.3633" />
    <ellipse
       cx="374.1732"
       cy="110.2474"
       rx="16.70416"
       ry="13.36330"
       transform="matrix(0.463455,0.000000,0.000000,0.434484,-152.7707,-14.93248)"
       style="font-size:12.000;fill:url(#radialGradient3699);fill-rule:evenodd;fill-opacity:1.0;opacity:1"
       id="ellipse588" />
    <ellipse
       cx="374.1732"
       cy="110.2474"
       rx="16.70416"
       ry="13.36330"
       transform="matrix(0.463455,0.000000,0.000000,0.434484,-134.9890,-20.40632)"
       style="font-size:12.000;fill:url(#radialGradient3699);fill-rule:evenodd;fill-opacity:1.0;opacity:1"
       id="ellipse602" />
  </g>
</svg>

<?xml version="1.0" encoding="UTF-8" standalone="no"?>
<!--
	(c) 2004 Ryan Stutsman
	
    This work is free; you can redistribute it and/or modify
    it under the terms of the GNU General Public License as published by
    the Free Software Foundation; either version 2 of the License, or
    (at your option) any later version.

    This work is distributed in the hope that it will be useful,
    but WITHOUT ANY WARRANTY; without even the implied warranty of
    MERCHANTABILITY or FITNESS FOR A PARTICULAR PURPOSE.  See the
    GNU General Public License for more details.

    You should have received a copy of the GNU General Public License
    along with this program; if not, write to the Free Software
    Foundation, Inc., 59 Temple Place, Suite 330, Boston, MA  02111-1307  USA
-->
<svg id="svg559" xmlns:rdf="http://www.w3.org/1999/02/22-rdf-syntax-ns#" xmlns="http://www.w3.org/2000/svg" height="80" width="80" version="1.0" y="0" x="0" xmlns:cc="http://creativecommons.org/ns#" xmlns:xlink="http://www.w3.org/1999/xlink" xmlns:dc="http://purl.org/dc/elements/1.1/">
 <metadata id="metadata7964">
  <rdf:RDF>
   <cc:Work rdf:about="">
    <dc:format>image/svg+xml</dc:format>
    <dc:type rdf:resource="http://purl.org/dc/dcmitype/StillImage"/>
   </cc:Work>
  </rdf:RDF>
 </metadata>
 <defs id="defs561">
  <linearGradient id="linearGradient579">
   <stop id="stop580" stop-color="#fff" offset="0"/>
   <stop id="stop581" stop-color="#656566" offset="1"/>
  </linearGradient>
  <radialGradient id="radialGradient568" xlink:href="#linearGradient579" cy=".50781" cx=".27692" r=".70375"/>
  <radialGradient id="radialGradient570" xlink:href="#linearGradient579" cy=".20313" cx=".22895" r="1.8091"/>
  <radialGradient id="radialGradient572" xlink:href="#linearGradient579" gradientUnits="userSpaceOnUse" cy="182.08" cx="367.49" gradientTransform="matrix(1 0 0 .47222 0 96.095)" r="60.135"/>
  <radialGradient id="radialGradient574" cy="-2.5469" cx=".23189" r="6.4073">
   <stop id="stop8312" stop-color="#fff" offset="0"/>
   <stop id="stop8314" stop-color="#656566" offset="1"/>
  </radialGradient>
  <radialGradient id="radialGradient3699" gradientUnits="userSpaceOnUse" cy="105.99" cx="379.78" gradientTransform="matrix(.89104 -.0050939 .0047198 .93941 40.756 8.2261)" r="16.704">
   <stop id="stop3695" stop-color="#bdffb3" stop-opacity=".49804" offset="0"/>
   <stop id="stop3697" stop-color="#00e900" stop-opacity=".91765" offset="1"/>
  </radialGradient>
 </defs>
 <g id="g588">
  <path id="path572" d="m360.47 51.125c-16.19 1.24-26.61 4.791-41.65 17.585-14.93 16.948-31.2 34.85-36.98 61.77-9.57 58.93 30.96 81.67 46.63 90.04 15 5.36 29.43 13.03 45.01 16.08 13.4 2.08 26.8 0.7 40.2-2.41 34.13-16.65 46.3-58.13 53.86-88.06 3.73-18.58 3.45-40.42-5.63-51.821-11.04-15.098-33.07-30.773-60.87-38.361-15.61-6.807-28.98-6.556-40.57-4.823z" transform="matrix(.38621 0 0 .38621 -105.02 -14.627)" stroke="#000" stroke-width="2.5" fill="url(#radialGradient568)"/>
  <ellipse id="path569" fill-rule="evenodd" rx="65.146" ry="46.772" transform="matrix(.43572 0 0 .44664 -21.932 -18.827)" cy="103.57" cx="138.64" fill="url(#radialGradient570)"/>
  <ellipse id="path571" fill-rule="evenodd" rx="60.135" ry="28.397" transform="matrix(.37994 .15658 -.15114 .39361 -81.124 -67.585)" cy="182.08" cx="367.49" fill="url(#radialGradient572)"/>
  <ellipse id="path573" fill-rule="evenodd" rx="60.135" ry="21.715" transform="matrix(.12826 -.30808 .20865 .18938 -34.502 164.28)" cy="188.76" cx="481.08" fill="url(#radialGradient574)"/>
  <ellipse id="path575" fill-rule="evenodd" rx="16.704" ry="13.363" transform="matrix(.46346 0 0 .43448 -117.18 -26.249)" cy="110.25" cx="374.17" fill="url(#radialGradient3699)"/>
  <ellipse id="ellipse588" fill-rule="evenodd" rx="16.704" ry="13.363" transform="matrix(.46346 0 0 .43448 -152.77 -14.932)" cy="110.25" cx="374.17" fill="url(#radialGradient3699)"/>
  <ellipse id="ellipse602" fill-rule="evenodd" rx="16.704" ry="13.363" transform="matrix(.46346 0 0 .43448 -134.99 -20.406)" cy="110.25" cx="374.17" fill="url(#radialGradient3699)"/>
 </g>
</svg>
